teeny/solid/deno.svg

<svg width="15" height="15" viewBox="0 0 15 15" fill="none" xmlns="http://www.w3.org/2000/svg">
<path d="M7 7H6V6H7V7Z" fill="black"/>
<path fill-rule="evenodd" clip-rule="evenodd" d="M7.5 0C3.35786 0 0 3.35786 0 7.5C0 11.6421 3.35786 15 7.5 15C11.6421 15 15 11.6421 15 7.5C15 3.35786 11.6421 0 7.5 0ZM8 13.9811C9.08703 13.8984 10.0993 13.5483 10.9713 12.9965L10.6842 7.82877C10.596 6.24172 9.28337 5 7.69388 5H6C5.25972 5 4.61337 5.4022 4.26756 6H5V7H4C4 8.10457 4.89543 9 6 9L6.88197 8.99997C7.37779 8.99997 7.83105 8.71984 8.05279 8.27637L8.94721 8.72358C8.73444 9.14912 8.40082 9.4894 8 9.71125V13.9811Z" fill="black"/>
</svg>

<svg viewBox="0 0 15 15" xmlns="http://www.w3.org/2000/svg"><g><path d="M7 7H6V6h1v1Z"/><path fill-rule="evenodd" d="M7.5 0C3.35 0 0 3.35 0 7.5 0 11.64 3.35 15 7.5 15c4.14 0 7.5-3.36 7.5-7.5C15 3.35 11.64 0 7.5 0ZM8 13.98c1.08-.09 2.09-.44 2.97-.99l-.29-5.17c-.09-1.59-1.41-2.83-3-2.83h-1.7c-.75 0-1.39.4-1.74 1h.73v1h-1c0 1.1.89 2 2 2l.88-.01c.49 0 .94-.29 1.17-.73l.89.44c-.22.42-.55.76-.95.98v4.26Z"/></g></svg>
